!!!COM: Vivaldi, Antonio Lucio
!!!CDT: 1678/03/04-1741/08/28
!!!OPR: 12 sonatas for two violins and basso continuo
!!!OTL: Sonata in D minor, op. @{OPS}, no. @{ONM} (@{SCT})
!!!OPS: 1
!!!ONM: 8
!!!OMV: 2. Corrente
!!!SCT: RV 64
!!!SCA: Antonio Vivaldi: Thematisch-systematisches Verzeichnis seiner Werke (Ryom-Verzeichnis)
!!!OMD: Allegro
!!!key: d
**kern	**dynam	**fb	**kern	**dynam	**kern	**dynam
*part3	*	*	*part2	*	*part1	*
*staff3	*	*	*staff2	*	*staff1	*
*ICstr&ICklav	*	*	*ICstr	*	*ICstr	*
*Icello&Icemba	*	*	*Ivioln	*	*Ivioln	*
*	*	*	*I#2	*	*I#1	*
*I"Violoncello\nContinuo	*	*	*I"Violin 2	*	*I"Violin 1	*
*I'bc	*	*	*I'v2	*	*I'v1	*
*>[A,A,B,B]	*>[A,A,B,B]	*>[A,A,B,B]	*>[A,A,B,B]	*>[A,A,B,B]	*>[A,A,B,B]	*>[A,A,B,B]
*>norep[A,B]	*>norep[A,B]	*>norep[A,B]	*>norep[A,B]	*>norep[A,B]	*>norep[A,B]	*>norep[A,B]
*>A	*>A	*>A	*>A	*>A	*>A	*>A
*clefF4	*	*	*clefG2	*	*clefG2	*
*k[b-]	*	*	*k[b-]	*	*k[b-]	*
*d:	*	*	*d:	*	*d:	*
*M3/4	*	*	*M3/4	*	*M3/4	*
*MM180	*	*	*MM180	*	*MM180	*
8D\	.	.	8f/	.	8dd\	.
=1	=1	=1	=1	=1	=1	=1
2D\	.	.	2f/	.	4dd\	.
.	.	.	.	.	8r	.
.	.	.	.	.	8a/L	.
4r	.	.	4r	.	8f/	.
.	.	.	.	.	8a/J	.
=2	=2	=2	=2	=2	=2	=2
4D\	.	.	4f/	.	(8d/L	.
.	.	.	.	.	8f/	.
4F\	.	6	8r	.	8a/)	.
.	.	.	8a/L	.	8dd/	.
4G\	.	6	8g/	.	8ee/	.
.	.	5	8f/J	.	8dd/J	.
=3	=3	=3	=3	=3	=3	=3
2A\	.	#	8e/L	.	4cc#X\	.
.	.	.	8ee/	.	.	.
.	.	.	8cc#X/	.	8r	.
.	.	.	8a/J	.	8ee\L	.
4r	.	.	4e/	.	8cc#X\	.
.	.	.	.	.	8ee\J	.
=4	=4	=4	=4	=4	=4	=4
4c#X\	.	.	4ee\	.	(8a\L	.
.	.	.	.	.	8cc#X\	.
4A\	.	.	8r	.	8ee\)	.
.	.	.	8cc#X\L	.	8gg\	.
4c#y\	.	6	8ee\	.	8aa\	.
.	.	5	8cc#X\J	.	8gg\J	.
=5	=5	=5	=5	=5	=5	=5
2d\	.	.	8a\L	.	4ff\	.
.	.	.	8aa\	.	.	.
.	.	.	8ff\	.	8r	.
.	.	.	8dd\	.	8aa\L	.
4r	.	.	8ee\	.	8gg\	.
.	.	.	8ff\J	.	8aa\J	.
=6	=6	=6	=6	=6	=6	=6
4G\	.	5	4gg\	.	4bb-y\	.
4GG/	.	6	4gg\	.	4ee\	.
4G\	.	.	8.aa\L	.	8.ff\L	.
.	.	.	16bb-y\Jk	.	16gg\Jk	.
=7	=7	=7	=7	=7	=7	=7
4.A\	.	#	8ee\L	.	4cc#X\	.
.	.	.	8aa\	.	.	.
.	.	.	8ee\	.	8r	.
8G\	.	.	8cc#X\	.	8a/L	.
4F\	.	6	8a\	.	8dd/	.
.	.	.	8aa\J	.	8f/J	.
!!LO:LB:g=original
=8	=8	=8	=8	=8	=8	=8
4G\	.	6 5	8gg\L	.	8e/L	.
.	.	.	8ff\J	.	8dd/	.
4A\	.	#	2ee\	.	8cc#X/	.
.	.	.	.	.	8dd/	.
4AA/	.	.	.	.	8A/	.
.	.	.	.	.	8cc#X/J	.
=9	=9	=9	=9	=9	=9	=9
4D\	.	.	8dd\L	.	4dd\	.
.	.	.	8ff\	.	.	.
2d\	.	.	8aa\	.	4r	.
.	.	.	8ff\	.	.	.
.	.	.	8dd\	.	4r	.
.	.	.	8ff\J	.	.	.
=10	=10	=10	=10	=10	=10	=10
4d\	.	4 2	8ee\L	.	2.r	.
.	.	.	8aa\	.	.	.
2c#X\	.	6	8a\	.	.	.
.	.	.	8aa\	.	.	.
.	.	.	8a\	.	.	.
.	.	.	8gg\J	.	.	.
=11	=11	=11	=11	=11	=11	=11
2d\	.	.	4ff\	.	8dd\L	.
.	.	.	.	.	8ff\	.
.	.	.	[2dd\	.	8aa\	.
.	.	.	.	.	8ff\	.
4D\	.	.	.	.	8dd\	.
.	.	.	.	.	8ff\J	.
=12	=12	=12	=12	=12	=12	=12
2A\	.	5 4	4dd\]	.	8ee\L	.
.	.	.	.	.	8aa\	.
.	.	X #	2cc#X\	.	8a\	.
.	.	.	.	.	8aa\	.
4AA/	.	.	.	.	8a\	.
.	.	.	.	.	8gg\J	.
=13	=13	=13	=13	=13	=13	=13
2D\	.	.	4dd\	.	8ff\L	.
.	.	.	.	.	8ee\	.
.	.	.	8r	.	8dd\	.
.	.	.	8ff\L	.	8aa\	.
4r	.	.	8ee\	.	8gg\	.
.	.	.	8ff\J	.	8aa\J	.
=14	=14	=14	=14	=14	=14	=14
4d\	.	.	8dd\L	.	8ff\L	.
.	.	.	8ee\	.	8gg\	.
4D\	.	.	8dd\	.	8ff\	.
.	.	.	8cc\	.	8ee\	.
4d\	.	.	8bn\	.	8dd\	.
.	.	.	8a\J	.	8cc\J	.
=15	=15	=15	=15	=15	=15	=15
4d\	.	.	8ff\L	.	8dd\L	.
.	.	.	8gg\	.	8ee\	.
4D\	.	.	8ff\	.	8dd\	.
.	.	.	8ee\	.	8cc\	.
4d\	.	.	8dd\	.	8bn\	.
.	.	.	8cc\J	.	8a\J	.
=16	=16	=16	=16	=16	=16	=16
[2.d\	.	.	8dd\L	.	8bn/L	.
.	.	.	8ee\	.	8cc/	.
.	.	.	8dd\	.	8bn/	.
.	.	.	8cc\	.	8a/	.
.	.	.	8bn\	.	8g#X/	.
.	.	.	8a\J	.	8f#X/J	.
!!LO:LB:g=original
=17	=17	=17	=17	=17	=17	=17
2d\]	.	4#| 2	8g#X/L	.	4.e/	.
.	.	.	8e/	.	.	.
.	.	.	8g#X/	.	.	.
.	.	.	8bn/	.	8gg#X\	.
4c\	.	6	8e/	.	8aa\L	.
.	.	.	8ee/J	.	8cc\J	.
=18	=18	=18	=18	=18	=18	=18
4d\	.	6nr 5	8dd\L	.	8bn\L	.
.	.	.	8cc\J	.	8aa\	.
4e\	.	#	2bn\	.	8gg#X\	.
.	.	.	.	.	8aa\	.
4E\	.	.	.	.	8e\	.
.	.	.	.	.	8gg#X\J	.
=19	=19	=19	=19	=19	=19	=19
2AA/	.	.	4a/	.	4aa\	.
.	.	.	8r	.	8r	.
.	.	.	8ff\L	p	8aa\L	p
4C/	p	.	8ee\	.	8gg\	.
.	.	.	8ff\J	.	8aa\J	.
=20	=20	=20	=20	=20	=20	=20
4D\	.	.	8dd\L	.	8ff\L	.
.	.	.	8ee\	.	8gg\	.
4DD/	.	.	8dd\	.	8ff\	.
.	.	.	8cc\	.	8ee\	.
4D\	.	.	8bn\	.	8dd\	.
.	.	.	8a\J	.	8cc\J	.
=21	=21	=21	=21	=21	=21	=21
4D\	.	.	8ff\L	.	8dd\L	.
.	.	.	8gg\	.	8ee\	.
4DD/	.	.	8ff\	.	8dd\	.
.	.	.	8ee\	.	8cc\	.
4D\	.	.	8dd\	.	8bn\	.
.	.	.	8cc\J	.	8a\J	.
=22	=22	=22	=22	=22	=22	=22
[2.D\	.	6nr	8dd\L	.	8bn/L	.
.	.	.	8ee\	.	8cc/	.
.	.	.	8dd\	.	8bn/	.
.	.	.	8cc\	.	8a/	.
.	.	.	8bn\	.	8g#X/	.
.	.	.	8a\J	.	8f#X/J	.
=23	=23	=23	=23	=23	=23	=23
2D\]	.	4#| 2	8g#X/L	.	4.e/	.
.	.	.	8e/	.	.	.
.	.	.	8g#X/	.	.	.
.	.	.	8bn/J	.	8g#X/	.
4C/	.	6	4e/	.	8a/L	.
.	.	.	.	.	8c/J	.
=24	=24	=24	=24	=24	=24	=24
4D\	.	6nr 5	8d/L	.	8Bn/L	.
.	.	.	8c/J	.	8a/	.
4E\	.	#	2Bn/	.	8g#X/	.
.	.	.	.	.	8a/	.
4EE/	.	.	.	.	8Bn/	.
.	.	.	.	.	8g#X/J	.
=25	=25	=25	=25	=25	=25	=25
2AA/	.	.	[2A/	.	[2A/	.
8r	.	.	8A/]	.	8A/]	.
!!LO:LB:g=original
=:|!|:	=:|!|:	=:|!|:	=:|!|:	=:|!|:	=:|!|:	=:|!|:
*>B	*>B	*>B	*>B	*>B	*>B	*>B
8A\	.	#	8cc#X\	.	8aa\	.
=26	=26	=26	=26	=26	=26	=26
2A\	.	#	2cc#y\	.	4aa\	.
.	.	.	.	.	8r	.
.	.	.	.	.	8ee\L	.
4r	.	.	4r	.	8cc#X\	.
.	.	.	.	.	8ee\J	.
=27	=27	=27	=27	=27	=27	=27
4A\	.	.	4ee\	.	(8a\L	.
.	.	.	.	.	8cc#X\	.
4c#X\	.	6	8r	.	8ee\)	.
.	.	.	8cc#X\L	.	8ggn\	.
4A\	.	.	8ee\	.	8aa\	.
.	.	.	8cc#X\J	.	8gg\J	.
=28	=28	=28	=28	=28	=28	=28
2d\	.	.	8a\L	.	4ff\	.
.	.	.	8aa\	.	.	.
.	.	.	8ff\	.	8r	.
.	.	.	8dd\J	.	8aa\L	.
4r	.	.	4a/	.	8ff\	.
.	.	.	.	.	8aa\J	.
=29	=29	=29	=29	=29	=29	=29
2F\	.	6	2aa\	.	(8dd\L	.
.	.	.	.	.	8ff\	.
.	.	.	.	.	8aa\)	.
.	.	.	.	.	8cccn\	.
4D\	.	.	4ff\	.	8ddd\	.
.	.	.	.	.	8ccc\J	.
=30	=30	=30	=30	=30	=30	=30
2G\	.	.	8dd\L	.	4bb-y\	.
.	.	.	8gg\	.	.	.
.	.	.	8aa\	.	8r	.
.	.	.	8bb-y\J	.	8gg\L	.
4F\	.	6	4dd\	.	8aa\	.
.	.	.	.	.	8bb-y\J	.
=31	=31	=31	=31	=31	=31	=31
2E\	.	6	2gg\	.	(8cc\L	.
.	.	.	.	.	8ee\	.
.	.	.	.	.	8gg\)	.
.	.	.	.	.	8bb-y\	.
4C/	.	.	4ee\	.	8ccc\	.
.	.	.	.	.	8bb-y\J	.
=32	=32	=32	=32	=32	=32	=32
2F\	.	.	8cc\L	.	4aa\	.
.	.	.	8ff\	.	.	.
.	.	.	8gg\	.	8r	.
.	.	.	8aa\J	.	8ff\L	.
4E\	.	6	4cc\	.	8gg\	.
.	.	.	.	.	8aa\J	.
=33	=33	=33	=33	=33	=33	=33
2D\	.	6	2ff\	.	(8b-y\L	.
.	.	.	.	.	8dd\	.
.	.	.	.	.	8ff\)	.
.	.	.	.	.	8aa\	.
4BB-y/	.	6	4bb-y\	.	8gg\	.
.	.	.	.	.	8ff\J	.
=34	=34	=34	=34	=34	=34	=34
2C/	.	.	8gg\L	.	4ee\	.
.	.	.	8cc\	.	.	.
.	.	.	8ee\	.	8r	.
.	.	.	8gg\J	.	8cc\L	.
4AA/	.	6	4cc\	.	8ff\	.
.	.	.	.	.	8a\J	.
!!LO:PB:g=original
=35	=35	=35	=35	=35	=35	=35
4BB-y/	.	6 5	4dd\	.	8g\L	.
.	.	.	.	.	8ff\	.
2C/	.	.	4g/	.	8ee\	.
.	.	.	.	.	8cc\	.
.	.	.	4cc\	.	8g\	.
.	.	.	.	.	8ee\J	.
=36	=36	=36	=36	=36	=36	=36
2F\	.	.	4a/	.	4ff\	.
.	.	.	4r	.	4.aa\	.
4C#X/	.	6	4r	.	.	.
.	.	.	.	.	8gg\	.
=37	=37	=37	=37	=37	=37	=37
4.D\	.	#	4r	.	8ff#X\L	.
.	.	.	.	.	8aa\J	.
.	.	.	4.aa\	.	4.ff#X\	.
8E-X\	.	.	.	.	.	.
8D/L	.	#	.	.	.	.
8C/J	.	.	8aa\	.	8ff#y\	.
=38	=38	=38	=38	=38	=38	=38
2BB-y/	.	6	2dd\	.	8gg\L	.
.	.	.	.	.	8dd\J	.
.	.	.	.	.	4.bb-y\	.
4D\	.	6	4r	.	.	.
.	.	.	.	.	8aa\	.
=39	=39	=39	=39	=39	=39	=39
4.E\	.	#	4r	.	8gg#X\L	.
.	.	.	.	.	8bbn\J	.
.	.	.	4.bbn\	.	4.gg#X\	.
8F\	.	.	.	.	.	.
8E\L	.	#	.	.	.	.
8D\J	.	.	8bb\	.	8gg#y\	.
=40	=40	=40	=40	=40	=40	=40
4C#y/	.	6	2ee\	.	8aa\L	.
.	.	.	.	.	8ee\J	.
2AA/	.	#	.	.	8cc#X\L	.
.	.	.	.	.	8a\J	.
.	.	.	4r	.	8e/L	.
.	.	.	.	.	8c#X/J	.
=41	=41	=41	=41	=41	=41	=41
4AA/	.	.	8a\L	.	4A/	.
.	.	.	8aa\	.	.	.
4A\	.	.	8a\	.	4r	.
.	.	.	8gg\	.	.	.
4AA/	.	6 4	8a\	.	4ff\	.
.	.	.	8ff\J	.	.	.
=42	=42	=42	=42	=42	=42	=42
4AA/	.	6 4	8a\L	.	(4ff\	.
.	.	.	8aa\	.	.	.
4A\	.	5 #	8a\	.	4ee\)	.
.	.	.	8gg\	.	.	.
4AA/	.	6 4	8a\	.	4ff\	.
.	.	.	8ff\J	.	.	.
=43	=43	=43	=43	=43	=43	=43
4AA/	.	6 4	8a\L	.	(4ff\	.
.	.	.	8aa\	.	.	.
4A\	.	5 #	8a\	.	4ee\)	.
.	.	.	8gg\	.	.	.
4AA/	.	6 4	8a\	.	4ff\	.
.	.	.	8ff\J	.	.	.
!!LO:LB:g=original
=44	=44	=44	=44	=44	=44	=44
4AA/	.	6 4	4a/	.	8ee\L	.
.	.	.	.	.	8aa\	.
4A\	.	5 #	4r	.	8a\	.
.	.	.	.	.	8gg\	.
4AA/	.	6 4	4ff\	.	8a\	.
.	.	.	.	.	8ff\J	.
=45	=45	=45	=45	=45	=45	=45
4AA/	.	6 4	(4ff\	.	8a\L	.
.	.	.	.	.	8aa\	.
4A\	.	5 #	4ee\)	.	8a\	.
.	.	.	.	.	8gg\	.
4AA/	.	6 4	4ff\	.	8a\	.
.	.	.	.	.	8ff\J	.
=46	=46	=46	=46	=46	=46	=46
4AA/	.	6 4	(4ff\	.	8a\L	.
.	.	.	.	.	8aa\	.
4A\	.	5 #	4ee\)	.	8a\	.
.	.	.	.	.	8gg\	.
4AA/	.	6 4	4ff\	.	8a\	.
.	.	.	.	.	8ff\J	.
=47	=47	=47	=47	=47	=47	=47
4AA/	.	5 #	8ee\L	.	4a/	.
.	.	.	8aa\	.	.	.
2C#X/	.	6	8ee\	.	4r	.
.	.	.	8cc#X\	.	.	.
.	.	.	8a\	.	4r	.
.	.	.	8aa\J	.	.	.
=49	=49	=49	=49	=49	=49	=49
4D\	.	.	4ff\	.	8r	.
.	.	.	.	.	8ddd\	.
2F\	.	6	4r	.	8aa\L	.
.	.	.	.	.	8ff\	.
.	.	.	4aa\	.	8dd\	.
.	.	.	.	.	8ddd\J	.
=49	=49	=49	=49	=49	=49	=49
4G\	.	.	8gg\L	.	8bb-y\L	.
.	.	.	8aa\	.	8ccc\	.
4GG/	.	.	8gg\	.	8bb-y\	.
.	.	.	8ff\	.	8aa\	.
4G\	.	.	8ee\	.	8gg\	.
.	.	.	8dd\J	.	8ff\J	.
=50	=50	=50	=50	=50	=50	=50
4G\	.	6	8ee\L	.	8gg\L	.
.	.	.	8ff\	.	8aa\	.
4GG/	.	.	8ee\	.	8gg\	.
.	.	.	8dd\	.	8ff\	.
4G\	.	.	8cc#X\	.	8ee\	.
.	.	.	8bn\J	.	8dd\J	.
=51	=51	=51	=51	=51	=51	=51
[2.G\	.	6	8gg\L	.	8ee\L	.
.	.	.	8aa\	.	8ff\	.
.	.	.	8gg\	.	8ee\	.
.	.	.	8ff\	.	8dd\	.
.	.	.	8ee\	.	8cc#X\	.
.	.	.	8dd\J	.	8bn\J	.
=52	=52	=52	=52	=52	=52	=52
2G\]	.	4#| 2	8cc#X\L	.	4.a/	.
.	.	.	8a\	.	.	.
.	.	.	8cc#X\	.	.	.
.	.	.	8ee\	.	8cc#X\	.
4F\	.	6	8a\	.	8dd/L	.
.	.	.	8aa\J	.	8f/J	.
!!LO:LB:g=original
=53	=53	=53	=53	=53	=53	=53
4G\	.	6 5	8gg\L	.	8e/L	.
.	.	.	8ff\J	.	8dd/	.
4A\	.	#	2ee\	.	8cc#X/	.
.	.	.	.	.	8dd/	.
4AA/	.	.	.	.	8A/	.
.	.	.	.	.	8cc#X/J	.
=54	=54	=54	=54	=54	=54	=54
2D\	p	.	4dd\	.	4dd\	.
.	.	.	8r	.	8r	.
.	.	.	8bb-y\L	p	8ddd\L	p
4F\	.	6	8aa\	.	8cccn\	.
.	.	.	8bb-y\J	.	8ddd\J	.
=55	=55	=55	=55	=55	=55	=55
4G\	.	.	8gg\L	.	8bb-y\L	.
.	.	.	8aa\	.	8ccc\	.
4GG/	.	.	8gg\	.	8bb-y\	.
.	.	.	8ff\	.	8aa\	.
4G\	.	.	8ee\	.	8gg\	.
.	.	.	8dd\J	.	8ff\J	.
=56	=56	=56	=56	=56	=56	=56
4G\	.	6	8ee\L	.	8gg\L	.
.	.	.	8ff\	.	8aa\	.
4GG/	.	.	8ee\	.	8gg\	.
.	.	.	8dd\	.	8ff\	.
4G\	.	.	8cc#X\	.	8ee\	.
.	.	.	8bn\J	.	8dd\J	.
=57	=57	=57	=57	=57	=57	=57
[2.G\	.	6	8gg\L	.	8ee\L	.
.	.	.	8aa\	.	8ff\	.
.	.	.	8gg\	.	8ee\	.
.	.	.	8ff\	.	8dd\	.
.	.	.	8ee\	.	8cc#X\	.
.	.	.	8dd\J	.	8bn\J	.
=58	=58	=58	=58	=58	=58	=58
2G\]	.	4#| 2	8cc#X\L	.	4.a/	.
.	.	.	8a\	.	.	.
.	.	.	8cc#X\	.	.	.
.	.	.	8ee\J	.	8cc#X\	.
4F\	.	6	4a/	.	8dd/L	.
.	.	.	.	.	8f/J	.
=59	=59	=59	=59	=59	=59	=59
4G\	.	6 5	8g/L	.	8e/L	.
.	.	.	8f/J	.	8dd/	.
4A\	.	#	2e/	.	8cc#X/	.
.	.	.	.	.	8dd/	.
4AA/	.	.	.	.	8A/	.
.	.	.	.	.	8cc#X/J	.
=60	=60	=60	=60	=60	=60	=60
2D\	.	.	2d/	.	8dd/L	.
.	.	.	.	.	8f/	.
.	.	.	.	.	8a/	.
.	.	.	.	.	8d/	.
4r	.	.	4r	.	8f/	.
.	.	.	.	.	8A/J	.
=61	=61	=61	=61	=61	=61	=61
2D\	.	.	[2d/	.	[2d/	.
8r	.	.	8d/]	.	8d/]	.
=:|!	=:|!	=:|!	=:|!	=:|!	=:|!	=:|!
*-	*-	*-	*-	*-	*-	*-
!!!SMS: RV 64 / Estienne Roger (No. 363), Amsterdam [facs.]
!!!ENC: Fran Bennion   rev. 05/14/21 E Correia
!!!END: 2004/10/25
!!!ONB: Converted from MuseData with musedata2hum on Sat May 11 12:01:56 2024
!!!YEM: (C) 2004, 2019 Center for Computer Assisted Research in the Humanities
!!!system-decoration: [(s1,s2,s3)]
!!!URL-info: https://wiki.ccarh.org/wiki/MuseData:_Antonio_Vivaldi#Op._1:_Suonate_da_camera_a_tr.C3.A8.2C_due_violini_e_violone_o_cembalo Information about Vivaldi Op. 1 on the CCARH wiki
!!!URL-pdf: https://pdf.musedata.org/vivaldi-op01-no08.pdf#page=3 MuseData edition
!!!URL-pdf: https://s9.imslp.org/files/imglnks/usimg/1/18/IMSLP280399-PMLP10351-Vivaldi_Sonatas_Op_1_-_Violino_Primo.pdf#page=13 Violino primo part, Amsterdam: Estienne Roger, n.d.(ca.1723). Plate 363.
!!!URL-pdf: https://s9.imslp.org/files/imglnks/usimg/d/d5/IMSLP280400-PMLP10351-Vivaldi_Sonatas_Op_1_-_Violino_Secondo.pdf#page=10 Violino secondo part, Amsterdam: Estienne Roger, n.d.(ca.1723). Plate 363.
!!!URL-pdf: https://s9.imslp.org/files/imglnks/usimg/8/89/IMSLP280401-PMLP10351-Vivaldi_Sonatas_Op_1_-_Organo_e_Violoncello.pdf#page=11 Organo e Violoncello parts, Amsterdam: Estienne Roger, n.d.(ca.1723). Plate 363.
!!!URL-youtube: https://www.youtube.com/watch?v=P5HHPe_W6Uo&t=627s L'Arte dell'Arco
!!!title: @{OTL}, mov. @{OMV}
!!!filter-vcross: vcross
!!!EEV: 2024/05/11
!!!source-file: https://bitbucket.org/musedata/vivaldi/src/master/roger/op1/no08/stage2/02/01
!!!source-file: https://bitbucket.org/musedata/vivaldi/src/master/roger/op1/no08/stage2/02/02
!!!source-file: https://bitbucket.org/musedata/vivaldi/src/master/roger/op1/no08/stage2/02/03
!!!source-file: https://bitbucket.org/musedata/vivaldi/src/master/roger/op1/no08/stage2/02/04
